.local/share/icons/Gruvbox-Plus-Dark/status/22/changes-allow.svg

<svg xmlns="http://www.w3.org/2000/svg" width="22" height="22" version="1">
 <path d="m 11,1.5 c -2.982464,0 -5.4359589,2.1562262 -5.9101562,5 H 7.1386719 C 7.5823641,4.7737034 9.13145,3.5 11,3.5 c 2.216,0 4,1.784 4,4 v 2 h 2 v -2 c 0,-3.324 -2.676,-6 -6,-6 z" style="opacity:0.2"/>
 <path style="fill:#ebdbb2" d="M 11,1 C 8.017536,1 5.5640411,3.1562262 5.0898438,6 H 7.1386719 C 7.5823641,4.2737034 9.13145,3 11,3 c 2.216,0 4,1.784 4,4 v 2 h 2 V 7 C 17,3.676 14.324,1 11,1 Z"/>
 <rect style="fill:#cc241d" width="12" height="16" x="-21" y="-19" rx="1" ry="1" transform="matrix(0,-1,-1,0,0,0)"/>
 <path style="opacity:0.2;fill:#ebdbb2" d="M 11,1 C 8.017536,1 5.5640411,3.1562262 5.0898438,6 H 5.1953125 C 5.8591229,3.4080099 8.195375,1.5 11,1.5 c 3.324,0 6,2.676 6,6 V 7 C 17,3.676 14.324,1 11,1 Z"/>
 <path style="opacity:0.2;fill:#ebdbb2" d="M 4,9 C 3.446,9 3,9.446 3,10 v 0.5 c 0,-0.554 0.446,-1 1,-1 h 14 c 0.554,0 1,0.446 1,1 V 10 C 19,9.446 18.554,9 18,9 Z"/>
 <rect style="fill:#fb4934" width="16" height="7" x="3" y="11" rx="0" ry="0"/>
 <path style="opacity:0.2" d="m 3,20 v 0.5 c 0,0.554 0.446,1 1,1 h 14 c 0.554,0 1,-0.446 1,-1 V 20 c 0,0.554 -0.446,1 -1,1 H 4 C 3.446,21 3,20.554 3,20 Z"/>
</svg>

<svg width="22" height="22" version="1" xmlns="http://www.w3.org/2000/svg">
  <path d="m11 1.5c-2.9825 0-5.436 2.1562-5.9102 5h2.0488c0.44369-1.7263 1.9928-3 3.8613-3 2.216 0 4 1.784 4 4v2h2v-2c0-3.324-2.676-6-6-6z" fill="#282828" opacity=".2"/>
  <path d="m11 1c-2.9825 0-5.436 2.1562-5.9102 5h2.0488c0.44369-1.7263 1.9928-3 3.8613-3 2.216 0 4 1.784 4 4v2h2v-2c0-3.324-2.676-6-6-6z" fill="#ebdbb2"/>
  <rect transform="matrix(0,-1,-1,0,0,0)" x="-21" y="-19" width="12" height="16" rx="1" ry="1" fill="#cc241d"/>
  <path d="m11 1c-2.9825 0-5.436 2.1562-5.9102 5h0.10547c0.66381-2.592 3.0001-4.5 5.8047-4.5 3.324 0 6 2.676 6 6v-0.5c0-3.324-2.676-6-6-6z" fill="#fbf1c7" opacity=".3"/>
  <path d="m4 9c-0.554 0-1 0.446-1 1v0.5c0-0.554 0.446-1 1-1h14c0.554 0 1 0.446 1 1v-0.5c0-0.554-0.446-1-1-1z" fill="#ebdbb2" opacity=".2"/>
  <rect x="3" y="11" width="16" height="7" rx="0" ry="0" fill="#fb4934"/>
  <path d="m3 20v0.5c0 0.554 0.446 1 1 1h14c0.554 0 1-0.446 1-1v-0.5c0 0.554-0.446 1-1 1h-14c-0.554 0-1-0.446-1-1z" fill="#282828" opacity=".2"/>
</svg>
